assets/img/braze_icons/colors.svg

<svg fill="none" height="24" viewBox="0 0 24 24" width="24" xmlns="http://www.w3.org/2000/svg"><g fill="#801ed7"><path d="m13.4494 13.2298c-.464.1111-.9492.1701-1.4494.1701-1.7196 0-3.27674-.7002-4.40047-1.8322-1.11233-1.1206-1.79953-2.66388-1.79953-4.36763 0-3.42421 2.77584-6.20007 6.2-6.20007 3.4241 0 6.2 2.77586 6.2 6.20007 0 1.24562-.3673 2.40544-.9995 3.37703-.834 1.2817-2.129 2.236-3.6499 2.6276-.0336.0086-.0673.017-.1012.0251z"/><path d="m15.1476 14.7743c1.517-.6312 2.8037-1.7048 3.6989-3.0597.1539-.2329.2308-.3494.3297-.408.0853-.0505.1897-.0754.2886-.0687.1147.0078.2125.0636.408.1754 1.8685 1.0684 3.1272 3.0813 3.1272 5.3866 0 3.4242-2.7758 6.2001-6.2 6.2001-.8877 0-1.7311-.1861-2.4941-.5218-.251-.1104-.3765-.1656-.4557-.2733-.068-.0923-.1034-.2127-.0963-.3272.0083-.1333.1026-.2759.2911-.561.7923-1.1983 1.2784-2.617 1.3467-4.1444.0052-.1157.0079-.2321.0083-.349v-.0234c0-.6111-.067-1.2073-.1943-1.7814-.0181-.0819-.0375-.1633-.0581-.2442z"/><path d="m4.12723 11.4133c.1955-.1118.29326-.1676.40793-.1754.09898-.0067.20332.0182.28866.0687.09887.0586.17582.1751.32973.408 1.46719 2.2206 3.98574 3.6855 6.84645 3.6855.4146 0 .822-.0307 1.2201-.0901l.0062.0257c.1135.4688.1737.959.1737 1.4642v.0215c-.0003.0842-.0023.1681-.0059.2514-.1428 3.2976-2.8614 5.9272-6.1941 5.9272-3.42416 0-6.2-2.7759-6.2-6.2001 0-2.3053 1.25869-4.3182 3.12723-5.3866z"/></g></svg>

<svg width="24" height="24" viewBox="0 0 24 24" fill="none" xmlns="http://www.w3.org/2000/svg">
<path d="M13.4494 13.2298C12.9854 13.3409 12.5002 13.3999 12 13.3999C10.2804 13.3999 8.72326 12.6997 7.59953 11.5677C6.4872 10.4471 5.8 8.90382 5.8 7.20007C5.8 3.77586 8.57584 1 12 1C15.4241 1 18.2 3.77586 18.2 7.20007C18.2 8.44569 17.8327 9.60551 17.2005 10.5771C16.3665 11.8588 15.0715 12.8131 13.5506 13.2047C13.517 13.2133 13.4833 13.2217 13.4494 13.2298Z" fill="#801ED7"/>
<path d="M15.1476 14.7743C16.6646 14.1431 17.9513 13.0695 18.8465 11.7146C19.0004 11.4817 19.0773 11.3652 19.1762 11.3066C19.2615 11.2561 19.3659 11.2312 19.4648 11.2379C19.5795 11.2457 19.6773 11.3015 19.8728 11.4133C21.7413 12.4817 23 14.4946 23 16.7999C23 20.2241 20.2242 23 16.8 23C15.9123 23 15.0689 22.8139 14.3059 22.4782C14.0549 22.3678 13.9294 22.3126 13.8502 22.2049C13.7822 22.1126 13.7468 21.9922 13.7539 21.8777C13.7622 21.7444 13.8565 21.6018 14.045 21.3167C14.8373 20.1184 15.3234 18.6997 15.3917 17.1723C15.3969 17.0566 15.3996 16.9402 15.4 16.8233L15.4 16.7999C15.4 16.1888 15.333 15.5926 15.2057 15.0185C15.1876 14.9366 15.1682 14.8552 15.1476 14.7743Z" fill="#801ED7"/>
<path d="M4.12723 11.4133C4.32273 11.3015 4.42049 11.2457 4.53516 11.2379C4.63414 11.2312 4.73848 11.2561 4.82382 11.3066C4.92269 11.3652 4.99964 11.4817 5.15355 11.7146C6.62074 13.9352 9.13929 15.4001 12 15.4001C12.4146 15.4001 12.822 15.3694 13.2201 15.31L13.2263 15.3357C13.3398 15.8045 13.4 16.2947 13.4 16.7999L13.4 16.8214C13.3997 16.9056 13.3977 16.9895 13.3941 17.0728C13.2513 20.3704 10.5327 23 7.2 23C3.77584 23 1 20.2241 1 16.7999C1 14.4946 2.25869 12.4817 4.12723 11.4133Z" fill="#801ED7"/>
</svg>
